icons/ic_plus_square.svg

<svg width="16" height="16" viewBox="0 0 16 16" fill="none" xmlns="http://www.w3.org/2000/svg">
<path d="M0 2C0 0.895431 0.895431 0 2 0H14C15.1046 0 16 0.895431 16 2V14C16 15.1046 15.1046 16 14 16H2C0.895431 16 0 15.1046 0 14V2Z" fill="#222532"/>
<path fill-rule="evenodd" clip-rule="evenodd" d="M8.3705 3.18515L7.33341 3.18515V7.33351L3.18505 7.33351V8.3706L7.33341 8.3706V12.519L8.3705 12.519L8.3705 8.3706L12.5189 8.3706V7.33351L8.3705 7.33351L8.3705 3.18515Z" fill="white"/>
</svg>

<?xml version="1.0" encoding="utf-8"?>
<!-- Generator: Adobe Illustrator 24.0.0, SVG Export Plug-In . SVG Version: 6.00 Build 0)  -->
<svg version="1.1" id="Layer_1" xmlns="http://www.w3.org/2000/svg" xmlns:xlink="http://www.w3.org/1999/xlink" x="0px" y="0px"
	 viewBox="0 0 16 16" style="enable-background:new 0 0 16 16;" xml:space="preserve">
<style type="text/css">
	.st0{fill:#202433;}
	.st1{fill-rule:evenodd;clip-rule:evenodd;fill:#FFFFFF;}
</style>
<path class="st0" d="M0,2c0-1.1,0.9-2,2-2h12c1.1,0,2,0.9,2,2v12c0,1.1-0.9,2-2,2H2c-1.1,0-2-0.9-2-2V2z"/>
<path class="st1" d="M8.4,3.2h-1v4.1H3.2v1h4.1v4.1h1v-4h4.1v-1h-4V3.2z"/>
</svg>
